third_party/noto/noto_2/emoji_u1f42e.svg

<svg enable-background="new 0 0 128 128" viewBox="0 0 128 128" xmlns="http://www.w3.org/2000/svg" xmlns:xlink="http://www.w3.org/1999/xlink"><g stroke="#B0B0B0" stroke-linejoin="round" stroke-miterlimit="10" stroke-width="3"><linearGradient id="f" x1="16.433" x2="16.433" y1="110.26" y2="-56.892" gradientUnits="userSpaceOnUse"><stop stop-color="#E3E3E3" offset="0"/><stop stop-color="#E6E6E6" offset=".138"/><stop stop-color="#F1F1F1" offset=".2561"/><stop stop-color="#fff" offset=".3484"/></linearGradient><path d="m26.99 39.58s-7.94-3.87-16.46 4.64c-8.53 8.53-4.65 16.47-4.65 16.47s7.94 3.87 16.46-4.64c8.52-8.52 4.65-16.47 4.65-16.47z" fill="url(#f)"/><linearGradient id="e" x1="111.57" x2="111.57" y1="110.26" y2="-56.892" gradientUnits="userSpaceOnUse"><stop stop-color="#E3E3E3" offset="0"/><stop stop-color="#E6E6E6" offset=".138"/><stop stop-color="#F1F1F1" offset=".2561"/><stop stop-color="#fff" offset=".3484"/></linearGradient><path d="m122.12 60.69s3.87-7.94-4.64-16.46c-8.52-8.52-16.46-4.64-16.46-4.64s-3.87 7.94 4.64 16.46c8.52 8.52 16.46 4.64 16.46 4.64z" fill="url(#e)"/></g><g fill="#E6B175" stroke="#C28640" stroke-linejoin="round" stroke-miterlimit="10" stroke-width="3"><path d="m35.53 16.1c-3.14-5.43-0.25-12.98-5.68-9.84s-7.3 10.09-4.16 15.52 10.09 7.3 15.52 4.16c5.43-3.13-2.54-4.4-5.68-9.84z"/><path d="m92.47 16.1c3.14-5.43 0.25-12.98 5.68-9.84s7.3 10.09 4.16 15.52-10.09 7.3-15.52 4.16c-5.43-3.13 2.54-4.4 5.68-9.84z"/></g><linearGradient id="d" x1="63.998" x2="63.998" y1="108.63" y2="-53.414" gradientUnits="userSpaceOnUse"><stop stop-color="#D4D4D4" offset=".1318"/><stop stop-color="#D7D7D7" offset=".2029"/><stop stop-color="#E2E2E2" offset=".2638"/><stop stop-color="#F3F3F3" offset=".3208"/><stop stop-color="#fff" offset=".3484"/></linearGradient><path d="M24.54,98l-2.92-44.09C21.62,32.6,39.04,15,60.44,15h7.13c21.4,0,38.81,17.6,38.81,39.01 L103.46,98H24.54z" fill="url(#d)"/><path d="M67.56,17c20.54,0,37.26,16.38,37.31,36.91L102.06,96H25.94l-2.82-42.09 C23.18,33.38,39.9,17,60.44,17H68 M67.56,14h-7.13c-22.17,0-40.31,17.83-40.31,40.01L23.13,99h81.73l3.01-44.99 C107.88,31.83,89.74,14,67.56,14L67.56,14z" fill="#B0B0B0"/><defs><path id="c" d="m67 14h-6.56c-22.17 0-40.31 18.33-40.31 40.51l3 45.49h81.73l2.73-45.49"/></defs><clipPath id="b"><use xlink:href="#c"/></clipPath><path d="M56,58.37C56,47.12,46.88,38,35.63,38h-0.26C24.12,38,15,47.12,15,58.37 v2.26C15,71.88,24.12,81,35.37,81h0.26C46.88,81,56,71.88,56,60.63V58.37z" clip-path="url(#b)" fill="#C4C4C4"/><g fill="#404040"><ellipse cx="36.77" cy="58.11" rx="8.77" ry="9.91"/><ellipse cx="91.23" cy="58.11" rx="8.77" ry="9.91"/></g><linearGradient id="a" x1="63" x2="63" y1="138.84" y2="18.645" gradientUnits="userSpaceOnUse"><stop stop-color="#D69549" offset="0"/><stop stop-color="#D7974C" offset=".1132"/><stop stop-color="#DB9E57" offset=".2102"/><stop stop-color="#E1A969" offset=".3009"/><stop stop-color="#E6B175" offset=".3484"/></linearGradient><path d="m103.5 100.44c0-12.12-9.82-21.94-21.94-21.94h-37.12c-12.12 0-21.94 9.82-21.94 21.94v0.13c0 12.12 9.82 21.94 21.94 21.94h37.13c12.12 0 21.94-9.82 21.94-21.94v-0.13z" fill="url(#a)" stroke="#C28640" stroke-linejoin="round" stroke-miterlimit="10" stroke-width="3"/><g fill="#754C24"><ellipse cx="45.28" cy="99.29" rx="6.79" ry="8.33"/><ellipse cx="82.72" cy="99.29" rx="6.79" ry="8.33"/></g></svg>

<svg width="128" height="128" style="enable-background:new 0 0 128 128;" xmlns="http://www.w3.org/2000/svg" xmlns:xlink="http://www.w3.org/1999/xlink">
  <g id="Layer_2">
    <g>
      <g>
        <linearGradient id="SVGID_1_" gradientUnits="userSpaceOnUse" x1="16.4331" x2="16.4331" y1="110.2601" y2="-56.8917">
          <stop offset="0" style="stop-color:#E3E3E3"/>
          <stop offset="0.138" style="stop-color:#E6E6E6"/>
          <stop offset="0.2561" style="stop-color:#F1F1F1"/>
          <stop offset="0.3484" style="stop-color:#FFFFFF"/>
        </linearGradient>
        <path d="M26.99,39.58 c0,0-7.94-3.87-16.46,4.64C2,52.75,5.88,60.69,5.88,60.69s7.94,3.87,16.46-4.64C30.86,47.53,26.99,39.58,26.99,39.58z" style="fill:url(#SVGID_1_);stroke:#B0B0B0;stroke-width:3;stroke-linejoin:round;stroke-miterlimit:10;"/>
        <linearGradient id="SVGID_2_" gradientUnits="userSpaceOnUse" x1="111.5669" x2="111.5669" y1="110.2601" y2="-56.8917">
          <stop offset="0" style="stop-color:#E3E3E3"/>
          <stop offset="0.138" style="stop-color:#E6E6E6"/>
          <stop offset="0.2561" style="stop-color:#F1F1F1"/>
          <stop offset="0.3484" style="stop-color:#FFFFFF"/>
        </linearGradient>
        <path d="M122.12,60.69 c0,0,3.87-7.94-4.64-16.46c-8.52-8.52-16.46-4.64-16.46-4.64s-3.87,7.94,4.64,16.46C114.18,64.57,122.12,60.69,122.12,60.69z" style="fill:url(#SVGID_2_);stroke:#B0B0B0;stroke-width:3;stroke-linejoin:round;stroke-miterlimit:10;"/>
      </g>
      <g>
        <path d="M35.53,16.1 c-3.14-5.43-0.25-12.98-5.68-9.84c-5.43,3.14-7.3,10.09-4.16,15.52c3.14,5.43,10.09,7.3,15.52,4.16 C46.64,22.81,38.67,21.54,35.53,16.1z" style="fill:#E6B175;stroke:#C28640;stroke-width:3;stroke-linejoin:round;stroke-miterlimit:10;"/>
        <path d="M92.47,16.1 c3.14-5.43,0.25-12.98,5.68-9.84c5.43,3.14,7.3,10.09,4.16,15.52c-3.14,5.43-10.09,7.3-15.52,4.16 C81.36,22.81,89.33,21.54,92.47,16.1z" style="fill:#E6B175;stroke:#C28640;stroke-width:3;stroke-linejoin:round;stroke-miterlimit:10;"/>
      </g>
      <g>
        <linearGradient id="SVGID_3_" gradientUnits="userSpaceOnUse" x1="63.9985" x2="63.9985" y1="108.6336" y2="-53.4144">
          <stop offset="0.1318" style="stop-color:#D4D4D4"/>
          <stop offset="0.2029" style="stop-color:#D7D7D7"/>
          <stop offset="0.2638" style="stop-color:#E2E2E2"/>
          <stop offset="0.3208" style="stop-color:#F3F3F3"/>
          <stop offset="0.3484" style="stop-color:#FFFFFF"/>
        </linearGradient>
        <path d="M24.54,98l-2.92-44.09C21.62,32.6,39.04,15,60.44,15h7.13c21.4,0,38.81,17.6,38.81,39.01 L103.46,98H24.54z" style="fill:url(#SVGID_3_);"/>
        <path d="M67.56,17c20.54,0,37.26,16.38,37.31,36.91L102.06,96H25.94l-2.82-42.09 C23.18,33.38,39.9,17,60.44,17H68 M67.56,14h-7.13c-22.17,0-40.31,17.83-40.31,40.01L23.13,99h81.73l3.01-44.99 C107.88,31.83,89.74,14,67.56,14L67.56,14z" style="fill:#B0B0B0;"/>
      </g>
      <g>
        <defs>
          <path id="SVGID_4_" d="M67,14h-6.56c-22.17,0-40.31,18.33-40.31,40.51L23.13,100h81.73l2.73-45.49"/>
        </defs>
        <clipPath id="SVGID_5_">
          <use style="overflow:visible;" xlink:href="#SVGID_4_"/>
        </clipPath>
        <path d="M56,58.37C56,47.12,46.88,38,35.63,38h-0.26C24.12,38,15,47.12,15,58.37 v2.26C15,71.88,24.12,81,35.37,81h0.26C46.88,81,56,71.88,56,60.63V58.37z" style="clip-path:url(#SVGID_5_);fill:#C4C4C4;"/>
      </g>
      <g>
        <ellipse cx="36.77" cy="58.11" rx="8.77" ry="9.91" style="fill:#404040;"/>
        <ellipse cx="91.23" cy="58.11" rx="8.77" ry="9.91" style="fill:#404040;"/>
      </g>
      <linearGradient id="SVGID_6_" gradientUnits="userSpaceOnUse" x1="63" x2="63" y1="138.8365" y2="18.6453">
        <stop offset="0" style="stop-color:#D69549"/>
        <stop offset="0.1132" style="stop-color:#D7974C"/>
        <stop offset="0.2102" style="stop-color:#DB9E57"/>
        <stop offset="0.3009" style="stop-color:#E1A969"/>
        <stop offset="0.3484" style="stop-color:#E6B175"/>
      </linearGradient>
      <path d="M103.5,100.44 c0-12.12-9.82-21.94-21.94-21.94H44.44c-12.12,0-21.94,9.82-21.94,21.94v0.13c0,12.12,9.82,21.94,21.94,21.94h37.13 c12.12,0,21.94-9.82,21.94-21.94V100.44z" style="fill:url(#SVGID_6_);stroke:#C28640;stroke-width:3;stroke-linejoin:round;stroke-miterlimit:10;"/>
      <g>
        <ellipse cx="45.28" cy="99.29" rx="6.79" ry="8.33" style="fill:#754C24;"/>
        <ellipse cx="82.72" cy="99.29" rx="6.79" ry="8.33" style="fill:#754C24;"/>
      </g>
    </g>
  </g>
  <g id="Layer_1" style="display:none;">
    <g style="display:inline;">
      <g style="opacity:0.6;">
        <circle cx="64" cy="64" r="28" style="opacity:0.61;fill:none;stroke:#000000;stroke-width:0.2625;stroke-miterlimit:10;"/>
        <line style="opacity:0.61;fill:none;stroke:#000000;stroke-width:0.25;stroke-miterlimit:10;" x1="84" x2="84" y1="0" y2="128"/>
        <line style="opacity:0.61;fill:none;stroke:#000000;stroke-width:0.25;stroke-miterlimit:10;" x1="44" x2="44" y1="0" y2="128"/>
        <line style="opacity:0.61;fill:none;stroke:#000000;stroke-width:0.25;stroke-miterlimit:10;" x1="64" x2="64" y1="0" y2="128"/>
        <line style="opacity:0.61;fill:none;stroke:#000000;stroke-width:0.25;stroke-miterlimit:10;" x1="128" x2="0" y1="64" y2="64"/>
        <line style="opacity:0.61;fill:none;stroke:#000000;stroke-width:0.25;stroke-miterlimit:10;" x1="128" x2="0" y1="44" y2="44"/>
        <line style="opacity:0.61;fill:none;stroke:#000000;stroke-width:0.25;stroke-miterlimit:10;" x1="128" x2="0" y1="83.75" y2="83.75"/>
        <line style="opacity:0.61;fill:none;stroke:#000000;stroke-width:0.25;stroke-miterlimit:10;" x1="128" x2="0" y1="128" y2="0"/>
        <line style="opacity:0.61;fill:none;stroke:#000000;stroke-width:0.25;stroke-miterlimit:10;" x1="0" x2="128" y1="128" y2="0"/>
        <g style="opacity:0.61;">
          <path d="M64,4.26c32.94,0,59.74,26.8,59.74,59.74S96.94,123.74,64,123.74S4.26,96.94,4.26,64S31.06,4.26,64,4.26 M64,4 C30.86,4,4,30.86,4,64s26.86,60,60,60s60-26.86,60-60S97.14,4,64,4L64,4z"/>
        </g>
        <path d="M107.97,115.97H20.03 c-4.42,0-8.03-3.61-8.03-8.03V20.03c0-4.42,3.61-8.03,8.03-8.03h87.94c4.42,0,8.03,3.61,8.03,8.03v87.91 C116,112.36,112.39,115.97,107.97,115.97z" style="opacity:0.61;fill:none;stroke:#000000;stroke-width:0.2578;stroke-miterlimit:10;"/>
        <path d="M100,124H28c-4.4,0-8-3.6-8-8 V12c0-4.4,3.6-8,8-8h72c4.4,0,8,3.6,8,8v104C108,120.4,104.4,124,100,124z" style="opacity:0.61;fill:none;stroke:#000000;stroke-width:0.2628;stroke-miterlimit:10;"/>
        <path d="M113.77,108H14.23 C8.6,108,4,103.4,4,97.77V30.28c0-5.63,4.6-10.23,10.23-10.23h99.54c5.63,0,10.23,4.6,10.23,10.23v67.48 C124,103.4,119.4,108,113.77,108z" style="opacity:0.61;fill:none;stroke:#000000;stroke-width:0.2627;stroke-miterlimit:10;"/>
      </g>
      <g>
        <g style="opacity:0.2;">
          <defs>
            <rect id="SVGID_24_" height="128" style="opacity:0.2;" width="128" x="0" y="0"/>
          </defs>
          <clipPath id="SVGID_7_">
            <use style="overflow:visible;" xlink:href="#SVGID_24_"/>
          </clipPath>
          <g style="clip-path:url(#SVGID_7_);">
            <g>
              <line style="fill:none;stroke:#000000;stroke-width:0.25;stroke-miterlimit:10;" x1="-28" x2="-28" y1="160" y2="-32"/>
              <line style="fill:none;stroke:#000000;stroke-width:0.25;stroke-miterlimit:10;" x1="-24" x2="-24" y1="160" y2="-32"/>
              <line style="fill:none;stroke:#000000;stroke-width:0.25;stroke-miterlimit:10;" x1="-20" x2="-20" y1="160" y2="-32"/>
              <line style="fill:none;stroke:#000000;stroke-width:0.25;stroke-miterlimit:10;" x1="-16" x2="-16" y1="160" y2="-32"/>
              <line style="fill:none;stroke:#000000;stroke-width:0.25;stroke-miterlimit:10;" x1="-12" x2="-12" y1="160" y2="-32"/>
              <line style="fill:none;stroke:#000000;stroke-width:0.25;stroke-miterlimit:10;" x1="-8" x2="-8" y1="160" y2="-32"/>
              <line style="fill:none;stroke:#000000;stroke-width:0.25;stroke-miterlimit:10;" x1="-4" x2="-4" y1="160" y2="-32"/>
              <line style="fill:none;stroke:#000000;stroke-width:0.25;stroke-miterlimit:10;" x1="0" x2="0" y1="160" y2="-32"/>
              <line style="fill:none;stroke:#000000;stroke-width:0.25;stroke-miterlimit:10;" x1="4" x2="4" y1="160" y2="-32"/>
              <line style="fill:none;stroke:#000000;stroke-width:0.25;stroke-miterlimit:10;" x1="8" x2="8" y1="160" y2="-32"/>
              <line style="fill:none;stroke:#000000;stroke-width:0.25;stroke-miterlimit:10;" x1="12" x2="12" y1="160" y2="-32"/>
              <line style="fill:none;stroke:#000000;stroke-width:0.25;stroke-miterlimit:10;" x1="16" x2="16" y1="160" y2="-32"/>
              <line style="fill:none;stroke:#000000;stroke-width:0.25;stroke-miterlimit:10;" x1="20" x2="20" y1="160" y2="-32"/>
              <line style="fill:none;stroke:#000000;stroke-width:0.25;stroke-miterlimit:10;" x1="24" x2="24" y1="160" y2="-32"/>
              <line style="fill:none;stroke:#000000;stroke-width:0.25;stroke-miterlimit:10;" x1="28" x2="28" y1="160" y2="-32"/>
              <line style="fill:none;stroke:#000000;stroke-width:0.25;stroke-miterlimit:10;" x1="32" x2="32" y1="160" y2="-32"/>
              <line style="fill:none;stroke:#000000;stroke-width:0.25;stroke-miterlimit:10;" x1="36" x2="36" y1="160" y2="-32"/>
              <line style="fill:none;stroke:#000000;stroke-width:0.25;stroke-miterlimit:10;" x1="40" x2="40" y1="160" y2="-32"/>
              <line style="fill:none;stroke:#000000;stroke-width:0.25;stroke-miterlimit:10;" x1="44" x2="44" y1="160" y2="-32"/>
              <line style="fill:none;stroke:#000000;stroke-width:0.25;stroke-miterlimit:10;" x1="48" x2="48" y1="160" y2="-32"/>
              <line style="fill:none;stroke:#000000;stroke-width:0.25;stroke-miterlimit:10;" x1="52" x2="52" y1="160" y2="-32"/>
              <line style="fill:none;stroke:#000000;stroke-width:0.25;stroke-miterlimit:10;" x1="56" x2="56" y1="160" y2="-32"/>
              <line style="fill:none;stroke:#000000;stroke-width:0.25;stroke-miterlimit:10;" x1="60" x2="60" y1="160" y2="-32"/>
              <line style="fill:none;stroke:#000000;stroke-width:0.25;stroke-miterlimit:10;" x1="64" x2="64" y1="160" y2="-32"/>
              <line style="fill:none;stroke:#000000;stroke-width:0.25;stroke-miterlimit:10;" x1="68" x2="68" y1="160" y2="-32"/>
              <line style="fill:none;stroke:#000000;stroke-width:0.25;stroke-miterlimit:10;" x1="72" x2="72" y1="160" y2="-32"/>
              <line style="fill:none;stroke:#000000;stroke-width:0.25;stroke-miterlimit:10;" x1="76" x2="76" y1="160" y2="-32"/>
              <line style="fill:none;stroke:#000000;stroke-width:0.25;stroke-miterlimit:10;" x1="80" x2="80" y1="160" y2="-32"/>
              <line style="fill:none;stroke:#000000;stroke-width:0.25;stroke-miterlimit:10;" x1="84" x2="84" y1="160" y2="-32"/>
              <line style="fill:none;stroke:#000000;stroke-width:0.25;stroke-miterlimit:10;" x1="88" x2="88" y1="160" y2="-32"/>
              <line style="fill:none;stroke:#000000;stroke-width:0.25;stroke-miterlimit:10;" x1="92" x2="92" y1="160" y2="-32"/>
              <line style="fill:none;stroke:#000000;stroke-width:0.25;stroke-miterlimit:10;" x1="96" x2="96" y1="160" y2="-32"/>
              <line style="fill:none;stroke:#000000;stroke-width:0.25;stroke-miterlimit:10;" x1="100" x2="100" y1="160" y2="-32"/>
              <line style="fill:none;stroke:#000000;stroke-width:0.25;stroke-miterlimit:10;" x1="104" x2="104" y1="160" y2="-32"/>
              <line style="fill:none;stroke:#000000;stroke-width:0.25;stroke-miterlimit:10;" x1="108" x2="108" y1="160" y2="-32"/>
              <line style="fill:none;stroke:#000000;stroke-width:0.25;stroke-miterlimit:10;" x1="112" x2="112" y1="160" y2="-32"/>
              <line style="fill:none;stroke:#000000;stroke-width:0.25;stroke-miterlimit:10;" x1="116" x2="116" y1="160" y2="-32"/>
              <line style="fill:none;stroke:#000000;stroke-width:0.25;stroke-miterlimit:10;" x1="120" x2="120" y1="160" y2="-32"/>
              <line style="fill:none;stroke:#000000;stroke-width:0.25;stroke-miterlimit:10;" x1="124" x2="124" y1="160" y2="-32"/>
              <line style="fill:none;stroke:#000000;stroke-width:0.25;stroke-miterlimit:10;" x1="128" x2="128" y1="160" y2="-32"/>
              <line style="fill:none;stroke:#000000;stroke-width:0.25;stroke-miterlimit:10;" x1="132" x2="132" y1="160" y2="-32"/>
              <line style="fill:none;stroke:#000000;stroke-width:0.25;stroke-miterlimit:10;" x1="136" x2="136" y1="160" y2="-32"/>
              <line style="fill:none;stroke:#000000;stroke-width:0.25;stroke-miterlimit:10;" x1="137" x2="137" y1="166.05" y2="-25.95"/>
              <line style="fill:none;stroke:#000000;stroke-width:0.25;stroke-miterlimit:10;" x1="144" x2="144" y1="160" y2="-32"/>
              <line style="fill:none;stroke:#000000;stroke-width:0.25;stroke-miterlimit:10;" x1="148" x2="148" y1="160" y2="-32"/>
              <line style="fill:none;stroke:#000000;stroke-width:0.25;stroke-miterlimit:10;" x1="152" x2="152" y1="160" y2="-32"/>
              <line style="fill:none;stroke:#000000;stroke-width:0.25;stroke-miterlimit:10;" x1="156" x2="156" y1="160" y2="-32"/>
            </g>
            <g>
              <line style="fill:none;stroke:#000000;stroke-width:0.25;stroke-miterlimit:10;" x1="-32" x2="160" y1="-28" y2="-28"/>
              <line style="fill:none;stroke:#000000;stroke-width:0.25;stroke-miterlimit:10;" x1="-32" x2="160" y1="-24" y2="-24"/>
              <line style="fill:none;stroke:#000000;stroke-width:0.25;stroke-miterlimit:10;" x1="-32" x2="160" y1="-20" y2="-20"/>
              <line style="fill:none;stroke:#000000;stroke-width:0.25;stroke-miterlimit:10;" x1="-32" x2="160" y1="-16" y2="-16"/>
              <line style="fill:none;stroke:#000000;stroke-width:0.25;stroke-miterlimit:10;" x1="-32" x2="160" y1="-12" y2="-12"/>
              <line style="fill:none;stroke:#000000;stroke-width:0.25;stroke-miterlimit:10;" x1="-32" x2="160" y1="-8" y2="-8"/>
              <line style="fill:none;stroke:#000000;stroke-width:0.25;stroke-miterlimit:10;" x1="-32" x2="160" y1="-4" y2="-4"/>
              <line style="fill:none;stroke:#000000;stroke-width:0.25;stroke-miterlimit:10;" x1="-32" x2="160" y1="0" y2="0"/>
              <line style="fill:none;stroke:#000000;stroke-width:0.25;stroke-miterlimit:10;" x1="-32" x2="160" y1="4" y2="4"/>
              <line style="fill:none;stroke:#000000;stroke-width:0.25;stroke-miterlimit:10;" x1="-32" x2="160" y1="8" y2="8"/>
              <line style="fill:none;stroke:#000000;stroke-width:0.25;stroke-miterlimit:10;" x1="-32" x2="160" y1="12" y2="12"/>
              <line style="fill:none;stroke:#000000;stroke-width:0.25;stroke-miterlimit:10;" x1="-32" x2="160" y1="16" y2="16"/>
              <line style="fill:none;stroke:#000000;stroke-width:0.25;stroke-miterlimit:10;" x1="-32" x2="160" y1="20" y2="20"/>
              <line style="fill:none;stroke:#000000;stroke-width:0.25;stroke-miterlimit:10;" x1="-32" x2="160" y1="24" y2="24"/>
              <line style="fill:none;stroke:#000000;stroke-width:0.25;stroke-miterlimit:10;" x1="-32" x2="160" y1="28" y2="28"/>
              <line style="fill:none;stroke:#000000;stroke-width:0.25;stroke-miterlimit:10;" x1="-32" x2="160" y1="32" y2="32"/>
              <line style="fill:none;stroke:#000000;stroke-width:0.25;stroke-miterlimit:10;" x1="-32" x2="160" y1="36" y2="36"/>
              <line style="fill:none;stroke:#000000;stroke-width:0.25;stroke-miterlimit:10;" x1="-32" x2="160" y1="40" y2="40"/>
              <line style="fill:none;stroke:#000000;stroke-width:0.25;stroke-miterlimit:10;" x1="-32" x2="160" y1="44" y2="44"/>
              <line style="fill:none;stroke:#000000;stroke-width:0.25;stroke-miterlimit:10;" x1="-32" x2="160" y1="48" y2="48"/>
              <line style="fill:none;stroke:#000000;stroke-width:0.25;stroke-miterlimit:10;" x1="-32" x2="160" y1="52" y2="52"/>
              <line style="fill:none;stroke:#000000;stroke-width:0.25;stroke-miterlimit:10;" x1="-32" x2="160" y1="56" y2="56"/>
              <line style="fill:none;stroke:#000000;stroke-width:0.25;stroke-miterlimit:10;" x1="-32" x2="160" y1="60" y2="60"/>
              <line style="fill:none;stroke:#000000;stroke-width:0.25;stroke-miterlimit:10;" x1="-32" x2="160" y1="64" y2="64"/>
              <line style="fill:none;stroke:#000000;stroke-width:0.25;stroke-miterlimit:10;" x1="-32" x2="160" y1="68" y2="68"/>
              <line style="fill:none;stroke:#000000;stroke-width:0.25;stroke-miterlimit:10;" x1="-32" x2="160" y1="72" y2="72"/>
              <line style="fill:none;stroke:#000000;stroke-width:0.25;stroke-miterlimit:10;" x1="-32" x2="160" y1="76" y2="76"/>
              <line style="fill:none;stroke:#000000;stroke-width:0.25;stroke-miterlimit:10;" x1="-32" x2="160" y1="80" y2="80"/>
              <line style="fill:none;stroke:#000000;stroke-width:0.25;stroke-miterlimit:10;" x1="-32" x2="160" y1="84" y2="84"/>
              <line style="fill:none;stroke:#000000;stroke-width:0.25;stroke-miterlimit:10;" x1="-32" x2="160" y1="88" y2="88"/>
              <line style="fill:none;stroke:#000000;stroke-width:0.25;stroke-miterlimit:10;" x1="-32" x2="160" y1="92" y2="92"/>
              <line style="fill:none;stroke:#000000;stroke-width:0.25;stroke-miterlimit:10;" x1="-32" x2="160" y1="96" y2="96"/>
              <line style="fill:none;stroke:#000000;stroke-width:0.25;stroke-miterlimit:10;" x1="-32" x2="160" y1="100" y2="100"/>
              <line style="fill:none;stroke:#000000;stroke-width:0.25;stroke-miterlimit:10;" x1="-32" x2="160" y1="104" y2="104"/>
              <line style="fill:none;stroke:#000000;stroke-width:0.25;stroke-miterlimit:10;" x1="-32" x2="160" y1="108" y2="108"/>
              <line style="fill:none;stroke:#000000;stroke-width:0.25;stroke-miterlimit:10;" x1="-32" x2="160" y1="112" y2="112"/>
              <line style="fill:none;stroke:#000000;stroke-width:0.25;stroke-miterlimit:10;" x1="-32" x2="160" y1="116" y2="116"/>
              <line style="fill:none;stroke:#000000;stroke-width:0.25;stroke-miterlimit:10;" x1="-32" x2="160" y1="120" y2="120"/>
              <line style="fill:none;stroke:#000000;stroke-width:0.25;stroke-miterlimit:10;" x1="-32" x2="160" y1="124" y2="124"/>
              <line style="fill:none;stroke:#000000;stroke-width:0.25;stroke-miterlimit:10;" x1="-32" x2="160" y1="128" y2="128"/>
              <line style="fill:none;stroke:#000000;stroke-width:0.25;stroke-miterlimit:10;" x1="-32" x2="160" y1="132" y2="132"/>
              <line style="fill:none;stroke:#000000;stroke-width:0.25;stroke-miterlimit:10;" x1="-32" x2="160" y1="136" y2="136"/>
              <line style="fill:none;stroke:#000000;stroke-width:0.25;stroke-miterlimit:10;" x1="-32" x2="160" y1="140" y2="140"/>
              <line style="fill:none;stroke:#000000;stroke-width:0.25;stroke-miterlimit:10;" x1="-32" x2="160" y1="144" y2="144"/>
              <line style="fill:none;stroke:#000000;stroke-width:0.25;stroke-miterlimit:10;" x1="-32" x2="160" y1="148" y2="148"/>
              <line style="fill:none;stroke:#000000;stroke-width:0.25;stroke-miterlimit:10;" x1="-32" x2="160" y1="152" y2="152"/>
              <line style="fill:none;stroke:#000000;stroke-width:0.25;stroke-miterlimit:10;" x1="-32" x2="160" y1="156" y2="156"/>
            </g>
            <path d="M159.75-31.75v191.5h-191.5v-191.5H159.75 M160-32H-32v192h192V-32L160-32z"/>
          </g>
        </g>
        <g>
          <rect height="128" style="opacity:0.3;fill:#F44336;" width="4" x="0" y="0"/>
          <rect height="128" style="opacity:0.3;fill:#F44336;" width="4" x="124" y="0"/>
          <rect height="120" style="opacity:0.3;fill:#F44336;" transform="matrix(-1.836970e-16 1 -1 -1.836970e-16 66 -62)" width="4" x="62" y="-58"/>
          <rect height="120" style="opacity:0.3;fill:#F44336;" transform="matrix(-1.836970e-16 1 -1 -1.836970e-16 190 62)" width="4" x="62" y="66"/>
        </g>
      </g>
    </g>
  </g>
</svg>
